icons/outline/circle-dotted-letter-p.svg

<!--
tags: [papa, sixteenth-letter, consonant, point, place, path, pair, plan, push, pull]
category: Letters
unicode: "ff70"
version: "3.11"
-->
<svg
  xmlns="http://www.w3.org/2000/svg"
  width="24"
  height="24"
  viewBox="0 0 24 24"
  fill="none"
  stroke="currentColor"
  stroke-width="2"
  stroke-linecap="round"
  stroke-linejoin="round"
>
  <path d="M10 12h2a2 2 0 1 0 0 -4h-2v8m-2.5 -11.79v.01m-3.29 3.28v.01m-1.21 4.49v.01m1.21 4.49v.01m3.29 3.28v.01m4.5 1.2v.01m4.5 -1.22v.01m3.29 -3.3v.01m1.21 -4.51v.01m-1.21 -4.51v.01m-3.29 -3.3v.01m-4.5 -1.22v.01" />
</svg>

<!--
tags: [papa, sixteenth-letter, consonant, point, place, path, pair, plan, push, pull]
category: Letters
unicode: "ff70"
version: "3.11"
-->
<svg
  xmlns="http://www.w3.org/2000/svg"
  width="24"
  height="24"
  viewBox="0 0 24 24"
  fill="none"
  stroke="currentColor"
  stroke-width="2"
  stroke-linecap="round"
  stroke-linejoin="round"
>
    <path d="M10 12h2a2 2 0 1 0 0 -4h-2v8M7.5 4.21v.01M4.21 7.5v.01M3 12v.01M4.21 16.5v.01M7.5 19.79v.01M12 21v.01M16.5 19.79v.01M19.79 16.5v.01M21 12v.01M19.79 7.5v.01M16.5 4.21v.01M12 3v.01" />
</svg>
